X:1
T:The Wise Thief
T:The Wise Thief
T:(Trio)
T:Daniel Johnson
T:by MUTOPIA - Scritto con MuseScore, un software libero e gratuito: http://musescore.org/it
T:by MUTOPIA - Scritto con MuseScore, un software libero e gratuito: http://musescore.org/it
C:Daniel Johnson
Z:by MUTOPIA - Scritto con MuseScore, un software libero e gratuito: http://musescore.org/it
%%score [ 1 2 3 ]
L:1/8
Q:1/4=58
M:4/4
K:G
V:1 treble nm="Voce"
V:2 treble nm="Voce"
V:3 treble nm="Voce"
V:1
!p!"^Adagio teneroso" B2 | B8 | B6 B2 |!<(! c4 d4!<)! |!>(! e4 d2 B2!>)! | c4 d4 | B8 | %7
w: Te|wise|thief didst|Thou make|wor\- thy of|Pa\- ra\-|dise|
 B2 B2 B2 B2 | ^A4 A2 A2 | !fermata!B4!mf! B2 B2 | e4 d2 c2 | B6 B2 | ^A3 A A2 ^c2 | %13
w: in a sin\- gle|mo\- ment, O|Lord, By the|wood of Thy|Cross, il\-|lu\- mine me as|
!>(! B6!p! E2!>)! | (G8 | F8) | E8 |] %17
w: well, and|save|_|me.|
V:2
!p! G2 | (G4 F2 E2) | F6 G2 |!<(! (G2 A2) B4!<)! |!>(! (G2 A2) G2 G2!>)! | G4 F4 | D8 | %7
w: Te|wise _ _|thief didst|Thou _ make|wor _ thy of|Pa- ra-|dise|
 G2 G2 F2 F2 | G4 F2 F2 | !fermata!F4!mf! B2 B2 | (c2 BA) A2 A2 | G6 G2 | G3 G F2 F2 | %13
w: in a sin- gle|mo- ment, O|Lord, By the|wood _ _ of Thy|Cross, il-|lu- mine me as|
!>(! (F2 A2 G2)!p! C2!>)! | ((E8 | E4) ^D4) | B,8 |] %17
w: well, _ _ and|save|_ _|me.|
V:3
!p! E2 | (E4 ^D2 ^C2) | ^D6 E2 |!<(! E4 (F2 G2)!<)! |!>(! C4 B,2 D2!>)! | A,4 A,4 | G,8 | %7
 E2 E2 ^D2 D2 | E2 ^C2 C2 E2 | !fermata!^D4!mf! B2 B2 | G4 F2 ^D2 | (E4 =D2) D2 | E3 E ^C2 E2 | %13
!>(! (^D2 F2 E2)!p! A,2!>)! | (B,4 C4 | A,4 B,2 A,2) | G,8 |] %17

